src/assets/redPacket.svg

<svg fill="none" height="46" viewBox="0 0 42 46" width="42" xmlns="http://www.w3.org/2000/svg" xmlns:xlink="http://www.w3.org/1999/xlink"><filter id="a" color-interpolation-filters="sRGB" filterUnits="userSpaceOnUse" height="58" width="56" x="-7" y="-11"><feFlood flood-opacity="0" result="BackgroundImageFix"/><feGaussianBlur in="BackgroundImageFix" stdDeviation="8"/><feComposite in2="SourceAlpha" operator="in" result="effect1_backgroundBlur_253_30607"/><feColorMatrix in="SourceAlpha" result="hardAlpha" type="matrix" values="0 0 0 0 0 0 0 0 0 0 0 0 0 0 0 0 0 0 127 0"/><feOffset dy="6"/><feGaussianBlur stdDeviation="6"/><feComposite in2="hardAlpha" operator="out"/><feColorMatrix type="matrix" values="0 0 0 0 0.941176 0 0 0 0 0.2 0 0 0 0 0.2 0 0 0 0.2 0"/><feBlend in2="effect1_backgroundBlur_253_30607" mode="normal" result="effect2_dropShadow_253_30607"/><feBlend in="SourceGraphic" in2="effect2_dropShadow_253_30607" mode="normal" result="shape"/></filter><g filter="url(#a)"><path d="m12.8794 11.1941s-.793-2.28394 8.1209-2.28394 8.1208 2.28394 8.1208 2.28394v.9834h-16.2417z" fill="#db1919"/><path d="m26.8006 10.3981c0 1.3101-1.0621 2.3722-2.3723 2.3722-1.3101 0-2.3722-1.0621-2.3722-2.3722 0-1.31021 1.0621-2.37232 2.3722-2.37232 1.3102 0 2.3723 1.06211 2.3723 2.37232z" fill="#ffbc5a" stroke="#f5b250" stroke-width=".2"/><path clip-rule="evenodd" d="m25.7803 9.87444v.74526h-2.2559-.097c.1027.4522.5104.7899.9977.7899.4028 0 .7513-.2308.918-.5663l.4372-.0001v.626c0 .1482-.1212.2683-.2707.2683h-2.1657c-.1495 0-.2707-.1201-.2707-.2683v-1.59476zm-.6969.96876c-.1435.2081-.3849.3446-.6583.3446-.2735 0-.5149-.1365-.6584-.3446zm-1.2356-.7899c-.2122 0-.3877.1555-.4169.3577h.2308c.0253-.0778.0991-.1341.1861-.1341.0869 0 .1607.0563.186.1341h.2308c-.0292-.2022-.2047-.3577-.4168-.3577zm1.158 0c-.2122 0-.3877.1555-.4169.3577h.2308c.0254-.0778.0991-.1341.1861-.1341s.1607.0563.1861.1341h.2307c-.0292-.2022-.2047-.3577-.4168-.3577zm.5038-.99861c.1495 0 .2707.12011.2707.26828v.3279h-2.7071v-.3279c0-.14817.1212-.26828.2707-.26828z" fill="#fff" fill-rule="evenodd"/><circle cx="17.3902" cy="10.3981" fill="#ffbc5a" r="2.37228" stroke="#f5b250" stroke-width=".2"/><path clip-rule="evenodd" d="m18.7422 9.87444v.74526h-2.2559-.097c.1027.4522.5104.7899.9977.7899.4028 0 .7513-.2308.918-.5663l.4372-.0001v.626c0 .1482-.1212.2683-.2707.2683h-2.1656c-.1495 0-.2707-.1201-.2707-.2683v-1.59476zm-.6969.96876c-.1435.2081-.3848.3446-.6583.3446s-.5148-.1365-.6584-.3446zm-1.2356-.7899c-.2122 0-.3877.1555-.4169.3577h.2308c.0254-.0778.0991-.1341.1861-.1341s.1607.0563.1861.1341h.2307c-.0292-.2022-.2047-.3577-.4168-.3577zm1.158 0c-.2122 0-.3877.1555-.4168.3577h.2307c.0254-.0778.0991-.1341.1861-.1341s.1607.0563.1861.1341h.2307c-.0292-.2022-.2047-.3577-.4168-.3577zm.5038-.99861c.1495 0 .2707.12011.2707.26828v.3279h-2.707v-.3279c0-.14817.1212-.26828.2707-.26828z" fill="#fff" fill-rule="evenodd"/><path d="m24.1833 9.78323c0 1.75807-1.4252 3.18327-3.1833 3.18327-1.758 0-3.1832-1.4252-3.1832-3.18327 0-1.75805 1.4252-3.18323 3.1832-3.18323 1.7581 0 3.1833 1.42518 3.1833 3.18323z" fill="#ffbc5a" stroke="#f5b250" stroke-width=".2"/><path clip-rule="evenodd" d="m22.7972 9.0906v.9897h-2.9959-.1289c.1364.6005.6779 1.049 1.325 1.049.535 0 .9977-.3065 1.2191-.7521h.5807v.8313c0 .1968-.161.3563-.3595.3563h-2.876c-.1986 0-.3596-.1595-.3596-.3563v-2.1179zm-.9255 1.2866c-.1906.2762-.5111.4575-.8743.4575s-.6837-.1813-.8743-.4575zm-1.641-1.04908c-.2817 0-.5148.20647-.5535.47505l.3064.00001c.0337-.10338.1316-.17815.2471-.17815s.2134.07477.2471.17815l.3065-.00001c-.0388-.26858-.2718-.47505-.5536-.47505zm1.5379 0c-.2817 0-.5148.20647-.5536.47505l.3065.00001c.0337-.10338.1316-.17815.2471-.17815s.2134.07477.2471.17815l.3065-.00001c-.0388-.26858-.2719-.47505-.5536-.47505zm.6691-1.32617c.1985 0 .3595.15952.3595.35629v.43546h-3.5951v-.43546c0-.19677.161-.35629.3596-.35629z" fill="#fff" fill-rule="evenodd"/><path d="m12.8799 11.2578s3.0136.9041 8.105.9041 8.1367-.9041 8.1367-.9041v15.2417c0 .5523-.4477 1-1 1h-14.2417c-.5523 0-1-.4477-1-1z" fill="#f93737"/></g></svg>

<svg width="42" height="46" viewBox="0 0 42 46" fill="none" xmlns="http://www.w3.org/2000/svg">
<g filter="url(#filter0_bd_253_30607)">
<path d="M12.8794 11.1941C12.8794 11.1941 12.0864 8.91016 21.0003 8.91016C29.9142 8.91016 29.1211 11.1941 29.1211 11.1941V12.1775H12.8794V11.1941Z" fill="#DB1919"/>
<path d="M26.8006 10.3981C26.8006 11.7082 25.7385 12.7703 24.4283 12.7703C23.1182 12.7703 22.0561 11.7082 22.0561 10.3981C22.0561 9.08789 23.1182 8.02578 24.4283 8.02578C25.7385 8.02578 26.8006 9.08789 26.8006 10.3981Z" fill="#FFBC5A" stroke="#F5B250" stroke-width="0.2"/>
<path fill-rule="evenodd" clip-rule="evenodd" d="M25.7803 9.87444V10.6197H23.5244L23.4274 10.6197C23.5301 11.0719 23.9378 11.4096 24.4251 11.4096C24.8279 11.4096 25.1764 11.1788 25.3431 10.8433L25.7803 10.8432V11.4692C25.7803 11.6174 25.6591 11.7375 25.5096 11.7375H23.3439C23.1944 11.7375 23.0732 11.6174 23.0732 11.4692V9.87444H25.7803ZM25.0834 10.8432C24.9399 11.0513 24.6985 11.1878 24.4251 11.1878C24.1516 11.1878 23.9102 11.0513 23.7667 10.8432H25.0834ZM23.8478 10.0533C23.6356 10.0533 23.4601 10.2088 23.4309 10.411L23.6617 10.411C23.687 10.3332 23.7608 10.2769 23.8478 10.2769C23.9347 10.2769 24.0085 10.3332 24.0338 10.411L24.2646 10.411C24.2354 10.2088 24.0599 10.0533 23.8478 10.0533ZM25.0058 10.0533C24.7936 10.0533 24.6181 10.2088 24.5889 10.411L24.8197 10.411C24.8451 10.3332 24.9188 10.2769 25.0058 10.2769C25.0928 10.2769 25.1665 10.3332 25.1919 10.411L25.4226 10.411C25.3934 10.2088 25.2179 10.0533 25.0058 10.0533ZM25.5096 9.05469C25.6591 9.05469 25.7803 9.1748 25.7803 9.32297V9.65087H23.0732V9.32297C23.0732 9.1748 23.1944 9.05469 23.3439 9.05469H25.5096Z" fill="white"/>
<circle cx="17.3902" cy="10.3981" r="2.37228" fill="#FFBC5A" stroke="#F5B250" stroke-width="0.2"/>
<path fill-rule="evenodd" clip-rule="evenodd" d="M18.7422 9.87444V10.6197H16.4863L16.3893 10.6197C16.492 11.0719 16.8997 11.4096 17.387 11.4096C17.7898 11.4096 18.1383 11.1788 18.305 10.8433L18.7422 10.8432V11.4692C18.7422 11.6174 18.621 11.7375 18.4715 11.7375H16.3059C16.1564 11.7375 16.0352 11.6174 16.0352 11.4692V9.87444H18.7422ZM18.0453 10.8432C17.9018 11.0513 17.6605 11.1878 17.387 11.1878C17.1135 11.1878 16.8722 11.0513 16.7286 10.8432H18.0453ZM16.8097 10.0533C16.5975 10.0533 16.422 10.2088 16.3928 10.411L16.6236 10.411C16.649 10.3332 16.7227 10.2769 16.8097 10.2769C16.8967 10.2769 16.9704 10.3332 16.9958 10.411L17.2265 10.411C17.1973 10.2088 17.0218 10.0533 16.8097 10.0533ZM17.9677 10.0533C17.7555 10.0533 17.58 10.2088 17.5509 10.411L17.7816 10.411C17.807 10.3332 17.8807 10.2769 17.9677 10.2769C18.0547 10.2769 18.1284 10.3332 18.1538 10.411L18.3845 10.411C18.3553 10.2088 18.1798 10.0533 17.9677 10.0533ZM18.4715 9.05469C18.621 9.05469 18.7422 9.1748 18.7422 9.32297V9.65087H16.0352V9.32297C16.0352 9.1748 16.1564 9.05469 16.3059 9.05469H18.4715Z" fill="white"/>
<path d="M24.1833 9.78323C24.1833 11.5413 22.7581 12.9665 21 12.9665C19.242 12.9665 17.8168 11.5413 17.8168 9.78323C17.8168 8.02518 19.242 6.6 21 6.6C22.7581 6.6 24.1833 8.02518 24.1833 9.78323Z" fill="#FFBC5A" stroke="#F5B250" stroke-width="0.2"/>
<path fill-rule="evenodd" clip-rule="evenodd" d="M22.7972 9.0906V10.0803H19.8013L19.6724 10.0803C19.8088 10.6808 20.3503 11.1293 20.9974 11.1293C21.5324 11.1293 21.9951 10.8228 22.2165 10.3772L22.7972 10.3772V11.2085C22.7972 11.4053 22.6362 11.5648 22.4377 11.5648H19.5617C19.3631 11.5648 19.2021 11.4053 19.2021 11.2085V9.0906H22.7972ZM21.8717 10.3772C21.6811 10.6534 21.3606 10.8347 20.9974 10.8347C20.6342 10.8347 20.3137 10.6534 20.1231 10.3772H21.8717ZM20.2307 9.32812C19.949 9.32812 19.7159 9.53459 19.6772 9.80317L19.9836 9.80318C20.0173 9.6998 20.1152 9.62503 20.2307 9.62503C20.3462 9.62503 20.4441 9.6998 20.4778 9.80318L20.7843 9.80317C20.7455 9.53459 20.5125 9.32812 20.2307 9.32812ZM21.7686 9.32812C21.4869 9.32812 21.2538 9.53459 21.215 9.80317L21.5215 9.80318C21.5552 9.6998 21.6531 9.62503 21.7686 9.62503C21.8841 9.62503 21.982 9.6998 22.0157 9.80318L22.3222 9.80317C22.2834 9.53459 22.0503 9.32812 21.7686 9.32812ZM22.4377 8.00195C22.6362 8.00195 22.7972 8.16147 22.7972 8.35824V8.7937H19.2021V8.35824C19.2021 8.16147 19.3631 8.00195 19.5617 8.00195H22.4377Z" fill="white"/>
<path d="M12.8799 11.2578C12.8799 11.2578 15.8935 12.1619 20.9849 12.1619C26.0763 12.1619 29.1216 11.2578 29.1216 11.2578V26.4995C29.1216 27.0518 28.6739 27.4995 28.1216 27.4995H13.8799C13.3276 27.4995 12.8799 27.0518 12.8799 26.4995V11.2578Z" fill="#F93737"/>
</g>
<defs>
<filter id="filter0_bd_253_30607" x="-7" y="-11" width="56" height="58" filterUnits="userSpaceOnUse" color-interpolation-filters="sRGB">
<feFlood flood-opacity="0" result="BackgroundImageFix"/>
<feGaussianBlur in="BackgroundImageFix" stdDeviation="8"/>
<feComposite in2="SourceAlpha" operator="in" result="effect1_backgroundBlur_253_30607"/>
<feColorMatrix in="SourceAlpha" type="matrix" values="0 0 0 0 0 0 0 0 0 0 0 0 0 0 0 0 0 0 127 0" result="hardAlpha"/>
<feOffset dy="6"/>
<feGaussianBlur stdDeviation="6"/>
<feComposite in2="hardAlpha" operator="out"/>
<feColorMatrix type="matrix" values="0 0 0 0 0.941176 0 0 0 0 0.2 0 0 0 0 0.2 0 0 0 0.2 0"/>
<feBlend mode="normal" in2="effect1_backgroundBlur_253_30607" result="effect2_dropShadow_253_30607"/>
<feBlend mode="normal" in="SourceGraphic" in2="effect2_dropShadow_253_30607" result="shape"/>
</filter>
</defs>
</svg>
